X:11
T:THE CRANBERRY TART/Nothing Can Sadden Us   # 2
M:6/8
L:1/8
Q:116
R:JIG
K:A
B|"A" cdc "E7" BcB| "A" ABA Ace | "D"  fga "A" edc| "E7" cBB Bed|!
"A" c3 "E7" BAB| "A" ABA Ace| "D" fga "A" edc|1"E7" dBG "A" A2 :|2 "E7"dBG "A" A2 d||!
"A" cde "E7"e2 e |"A" efe "E7"fga| "A" edc  cBA| "Bm" GAB "E7" B2 e|!
"A" cde e2 e | efe "E7" fga| "A" edc  cBA| "E7" GAB  Bed|!
|"A" c3 "E7" BAB| "A" ABA  Ace |"D"  fga "A" edc| "E7" cBB Bed|!
|"A" cdc  BcB| "A" ABA  Ace | "D"  fga "A" edc| "E7" dBG AdB||
